logos/maildeveloper.svg

<?xml version="1.0" encoding="UTF-8"?>
<svg width="256px" height="159px" viewBox="0 0 256 159" version="1.1" xmlns="http://www.w3.org/2000/svg" xmlns:xlink="http://www.w3.org/1999/xlink">
    <title>Group</title>
    <defs>
        <linearGradient x1="50%" y1="33.756%" x2="1.66533454e-14%" y2="100%" id="linearGradient-1">
            <stop stop-color="#60676F" offset="0%"></stop>
            <stop stop-color="#303439" offset="100%"></stop>
        </linearGradient>
    </defs>
    <g stroke="none" stroke-width="1" fill="none" fill-rule="evenodd">
        <g fill-rule="nonzero">
            <polygon fill="#393E42" points="21.3308235 158.117647 21.3308235 115.952941 149.330824 115.952941 149.330824 158.117647"></polygon>
            <path d="M0,158.117647 L0,0 L42.6691765,0 L85.3308235,42.1647059 L128,0 L170.669176,0 C170.669176,0 256,0 256,79.0588235 C256,158.117647 170.669176,158.117647 170.669176,158.117647 L128,158.117647 L128,52.7058824 L85.3308235,94.8705882 L42.6691765,52.7058824 L42.6691765,158.117647 L0,158.117647 Z M170.669176,42.1647059 L170.669176,115.952941 C170.669176,115.952941 212.457412,115.952941 213.330824,79.0588235 C214.211765,42.1647059 170.669176,42.1647059 170.669176,42.1647059 Z" fill="#60676F"></path>
            <path d="M252.754824,54.3698824 C254.825412,61.5981176 256,69.7825882 256,79.0588235 C256,158.117647 170.669176,158.117647 170.669176,158.117647 L170.669176,21.0823529 C170.669176,21.0823529 222.034824,29.8691765 252.754824,54.3698824 Z M170.669176,42.1647059 L170.669176,115.952941 C170.669176,115.952941 212.457412,115.952941 213.330824,79.0588235 C214.211765,42.1647059 170.669176,42.1647059 170.669176,42.1647059 Z" fill="url(#linearGradient-1)"></path>
        </g>
    </g>
</svg>

<svg viewBox="0 0 256 159" xmlns="http://www.w3.org/2000/svg">
  <defs>
    <linearGradient id="maildeveloper_svg__a" x1="50%" x2="0%" y1="33.756%" y2="100%">
      <stop offset="0%" stop-color="#60676F"/>
      <stop offset="100%" stop-color="#303439"/>
    </linearGradient>
  </defs>
  <g fill="none">
    <path fill="#393E42" d="M21.33 158.118v-42.165h128v42.165z"/>
    <path fill="#60676F" d="M0 158.118V0h42.67l42.66 42.165L128 0h42.67S256 0 256 79.059s-85.33 79.059-85.33 79.059H128V52.706L85.33 94.87 42.67 52.706v105.412H0ZM170.67 42.165v73.788s41.787 0 42.66-36.894c.882-36.894-42.66-36.894-42.66-36.894Z"/>
    <path fill="url(#maildeveloper_svg__a)" d="M252.755 54.37c2.07 7.228 3.245 15.413 3.245 24.689 0 79.059-85.33 79.059-85.33 79.059V21.082s51.365 8.787 82.085 33.288Zm-82.086-12.205v73.788s41.788 0 42.662-36.894c.88-36.894-42.662-36.894-42.662-36.894Z"/>
  </g>
</svg>
